svgs/np_manager.svg

<svg width="192" height="192" viewBox="0 0 192 192" fill="none" xmlns="http://www.w3.org/2000/svg">
<path d="M80 38L84.2 33.8C83.1 32.6 81.6 32 80 32V38ZM96 54L91.8 58.2C92.9 59.3 94.5 60 96 60V54ZM154 148H38V160H154V148ZM28 138V54H16V138H28ZM38 44H80V32H38V44ZM75.8 42.2L91.8 58.2L100.3 49.7L84.3 33.7L75.8 42.2ZM164 70V138H176V70H164ZM96 60H154V48H96V60ZM38 148C32.5 148 28 143.5 28 138H16C16 150.1 25.9 160 38 160V148ZM154 160C166.1 160 176 150.1 176 138H164C164 143.5 159.5 148 154 148V160ZM176 70C176 57.8 166.1 48 154 48V60C159.5 60 164 64.5 164 70H176ZM28 54C28 48.5 32.5 44 38 44V32C25.9 32 16 41.8 16 54H28Z" fill="black"/>
<path d="M75.4999 135.5V86.8C75.4999 77.6 67.9999 70.1 58.7999 70.1C49.5999 70.1 42.0999 77.6 42.0999 86.8V135.5" stroke="black" stroke-width="12" stroke-miterlimit="10" stroke-linecap="round" stroke-linejoin="round"/>
<path d="M66.5999 72C69.2999 70.8 72.2999 70.1 75.4999 70.1C89.4999 70.1 98.9999 78.4 98.9999 90.6C98.9999 105 88.9999 113 75.4999 113" stroke="black" stroke-width="12" stroke-miterlimit="10" stroke-linecap="round" stroke-linejoin="round"/>
<path d="M118.2 154C115.8 148.9 114.5 143.2 114.5 137.3C114.5 115.6 132 98.1 153.7 98.1C159.3 98.1 164.7 99.3 169.5 101.5" stroke="black" stroke-width="8" stroke-miterlimit="10" stroke-linecap="round" stroke-linejoin="round"/>
<path d="M130.5 131.2C132.709 131.2 134.5 129.409 134.5 127.2C134.5 124.991 132.709 123.2 130.5 123.2C128.291 123.2 126.5 124.991 126.5 127.2C126.5 129.409 128.291 131.2 130.5 131.2Z" fill="black"/>
<path d="M145.4 117.1C147.609 117.1 149.4 115.309 149.4 113.1C149.4 110.891 147.609 109.1 145.4 109.1C143.191 109.1 141.4 110.891 141.4 113.1C141.4 115.309 143.191 117.1 145.4 117.1Z" fill="black"/>
<path d="M103.7 117.8L117 120.7M136.3 100.9L133.2 88.2" stroke="black" stroke-width="8" stroke-miterlimit="10" stroke-linecap="round" stroke-linejoin="round"/>
</svg>

<svg width="192" height="192" viewBox="0 0 192 192" fill="none" xmlns="http://www.w3.org/2000/svg"><path d="m80 38 4.2-4.2C83.1 32.6 81.6 32 80 32v6Zm16 16-4.2 4.2c1.1 1.1 2.7 1.8 4.2 1.8v-6Zm58 94H38v12h116v-12ZM28 138V54H16v84h12Zm10-94h42V32H38v12Zm37.8-1.8 16 16 8.5-8.5-16-16-8.5 8.5ZM164 70v68h12V70h-12ZM96 60h58V48H96v12Zm-58 88c-5.5 0-10-4.5-10-10H16c0 12.1 9.9 22 22 22v-12Zm116 12c12.1 0 22-9.9 22-22h-12c0 5.5-4.5 10-10 10v12Zm22-90c0-12.2-9.9-22-22-22v12c5.5 0 10 4.5 10 10h12ZM28 54c0-5.5 4.5-10 10-10V32c-12.1 0-22 9.8-22 22h12Z" fill="#000"/><path d="M75.5 135.5V86.8c0-9.2-7.5-16.7-16.7-16.7s-16.7 7.5-16.7 16.7v48.7" stroke="#000" stroke-width="12" stroke-miterlimit="10" stroke-linecap="round" stroke-linejoin="round"/><path d="M66.6 72c2.7-1.2 5.7-1.9 8.9-1.9 14 0 23.5 8.3 23.5 20.5C99 105 89 113 75.5 113" stroke="#000" stroke-width="12" stroke-miterlimit="10" stroke-linecap="round" stroke-linejoin="round"/><path d="M118.2 154c-2.4-5.1-3.7-10.8-3.7-16.7 0-21.7 17.5-39.2 39.2-39.2 5.6 0 11 1.2 15.8 3.4" stroke="#000" stroke-width="8" stroke-miterlimit="10" stroke-linecap="round" stroke-linejoin="round"/><path d="M130.5 131.2a4 4 0 1 0 0-8 4 4 0 0 0 0 8ZM145.4 117.1a4 4 0 1 0 0-8 4 4 0 0 0 0 8Z" fill="#000"/><path d="m103.7 117.8 13.3 2.9m19.3-19.8-3.1-12.7" stroke="#000" stroke-width="8" stroke-miterlimit="10" stroke-linecap="round" stroke-linejoin="round"/></svg>
